X: 022
T: Sir George McKenzies Reel
R: reel
M: C|
L: 1/8
Z: 2012 John Chambers <jc:trillian.mit.edu>
B: J. Anderson "Budget of Strathspeys, Reels and Country Dances" (Early 1800s) p.2 #2
F: http://imslp.org/wiki/Anderson%27s_Budget_of_Strathspeys,_Reels_and_Country_Dances_(Various)
K: A
f |\
(fe)(cA) d2(fd) | e2(cA) dBBa | (fe)cA d3=g | fded cAA :|
g |\
(f/g/a) (ec) e2(eg) | (f/g/a) (ec) fBBg | a2(ec) e2(e=g) | fded cAAg |
(f/g/a) (ec) e2(eg) | fdec fBBg | aefc e3=g | fded cAA |]

%%sep 2 1 500
%%sep 1 1 500

